!!!COA:	Josquin des Prez
!!!CDT:	~1450-1521/08/27
!!!COA2: Le Brung
!!!OTL@@FRE:	Si vous n'avez
!!!AGN:	Chanson
!!!SCT:	NJE 30.10
!!!SCA:	New Josquin Edition 30.10
!!!voices:	6
**kern	**kern	**kern	**kern	**kern	**kern
*staff6	*staff5	*staff4	*staff3	*staff2	*staff1
*Ivox	*Ivox	*Ivox	*Ivox	*Ivox	*Ivox
*I"Bassus	*I"Quintus	*I"Sextus	*I"Tenor	*I"Contratenor	*I"Superius
*I'B	*I'Q	*I'Sx	*I'T	*I'Ct	*I'S
*clefF4	*clefF4	*clefGv2	*clefGv2	*clefGv2	*clefG2
*k[]	*k[]	*k[]	*k[]	*k[]	*k[]
*M2/1	*M2/1	*M2/1	*M2/1	*M2/1	*M2/1
*met(C|)	*met(C|)	*met(C|)	*met(C|)	*met(C|)	*met(C|)
=1-	=1-	=1-	=1-	=1-	=1-
!	!	!	!LO:TX:Z=10:t=Canon at the unison	!	!
0r	0r	0r	0r	1g	1r
.	.	.	.	2g\	1dd
.	.	.	.	2g\	.
=2	=2	=2	=2	=2	=2
0r	0r	0r	0r	1.f	2dd\
.	.	.	.	.	2dd\
.	.	.	.	.	[1cc
.	.	.	.	4e\	.
.	.	.	.	4d\	.
=3	=3	=3	=3	=3	=3
0r	0r	0r	0r	2e\	2cc\]
.	.	.	.	2f\	4b\
.	.	.	.	.	4a/
.	.	.	.	2g\	2b\
.	.	.	.	2e\	2cc\
=4	=4	=4	=4	=4	=4
0r	1G	0r	1r	0d	1dd
.	2G\	.	1d	.	1b
.	2G\	.	.	.	.
=5	=5	=5	=5	=5	=5
0r	1.F	0r	2d\	1r	1a
.	.	.	2d\	.	.
.	.	.	[1c	1f	2r
.	4E\	.	.	.	2a/
.	4D\	.	.	.	.
=6	=6	=6	=6	=6	=6
0r	2E\	0r	2c\]	2e\	2g/
.	2F\	.	4B\	2c\	2a/
.	.	.	4A/	.	.
.	2G\	.	2B\	1g	2d/
.	2C/	.	2c\	.	4g/
.	.	.	.	.	4a/
=7	=7	=7	=7	=7	=7
1G	2GG/	1r	1d	2r	4b\
.	.	.	.	.	4cc\
.	2GG/	.	.	2G/	1dd
2G\	2GG/	1d	1B	2G/	.
2G\	2GG/	.	.	2G/	2d/
=8	=8	=8	=8	=8	=8
1.F	1D	2d\	0A	1A	2.f/
.	.	2d\	.	.	.
.	.	.	.	.	4g/
.	2r	[1c	.	2r	2a/
4E\	2AA/	.	.	2e\	2a/
4D\	.	.	.	.	.
=9	=9	=9	=9	=9	=9
2E\	2AA/	2c\]	0r	2e\	2a/
2F\	2AA/	4B\	.	2e\	2a/
.	.	4A/	.	.	.
2G\	2E\	2B\	.	1e	2g/
2E\	2AA/	2c\	.	.	2cc\
=10	=10	=10	=10	=10	=10
1D	1D	1d	0r	1f	2b\
.	.	.	.	.	1a
1r	1E	1B	.	1e	.
.	.	.	.	.	2g#i/
=11	=11	=11	=11	=11	=11
0r	1AA	0A	1r	2c\	1a
.	.	.	.	2A/	.
.	2r	.	1c	2.c\	2r
.	2AA/	.	.	.	2e/
.	.	.	.	4d\	.
=12	=12	=12	=12	=12	=12
2r	2.C/	0r	2c\	[0e	2e/
2E\	.	.	2c\	.	2e/
.	4D\	.	.	.	.
2E\	[1E	.	[1B	.	2g/
2E\	.	.	.	.	2g/
=13	=13	=13	=13	=13	=13
2.G\	1E]	0r	2B\]	1e]	2g/
.	.	.	4A/	.	2g/
8F\L	.	.	4G/	.	.
8E\J	.	.	.	.	.
2D\	1r	.	2A/	1r	2f/
2G\	.	.	2B\	.	2d/
=14	=14	=14	=14	=14	=14
1C	1r	1r	1c	0r	1e
1r	1AA	1c	1A	.	2.c/
.	.	.	.	.	4d/
=15	=15	=15	=15	=15	=15
2r	2.C/	2c\	0G	2r	2.e/
2E\	.	2c\	.	2e\	.
.	4D\	.	.	.	4f/
2E\	4E\	[1B	.	2e\	[1g
.	4F\	.	.	.	.
2E\	[2G\	.	.	2e\	.
=16	=16	=16	=16	=16	=16
2G\	2G\]	2B\]	0r	2d\	1g]
2G\	4F\	4A/	.	2d\	.
.	4E\	4G/	.	.	.
1F	2D\	2A/	.	1f	2r
.	2D\	2B\	.	.	2d/
=17	=17	=17	=17	=17	=17
1G	1C	1c	0r	1e	2e/
.	.	.	.	.	1g
1D	1D	1A	.	[1d	.
.	.	.	.	.	2f#i/
=18	=18	=18	=18	=18	=18
0r	1GG	0G	1r	1d]	0g
.	1GG	.	1D	2r	.
.	.	.	.	2d\	.
=19	=19	=19	=19	=19	=19
1r	2C/	0r	2E/	2c\	1r
.	2D\	.	2F/	2A/	.
1GG	1GG	.	[1G	2B\	2r
.	.	.	.	2B\	2d/
=20	=20	=20	=20	=20	=20
2C/	0r	0r	2G/]	2c\	2e/
2C/	.	.	4F/	2c\	2e/
.	.	.	4E/	.	.
2D\	.	.	2F/	[1A	2d/
2AA/	.	.	2E/	.	2c/
=21	=21	=21	=21	=21	=21
2.D\	0r	1r	1F	1A]	2d/
.	.	.	.	.	1f
4C/	.	.	.	.	.
1BB	.	1D	1G	1r	.
.	.	.	.	.	4e/
.	.	.	.	.	4d/
=22	=22	=22	=22	=22	=22
1AA	1r	2E/	1A	1r	1c
.	.	2F/	.	.	.
1r	1GG	[1G	1r	1B	2r
.	.	.	.	.	2d/
=23	=23	=23	=23	=23	=23
0r	2C/	2G/]	0r	2c\	2e/
.	2C/	4F/	.	2c\	2e/
.	.	4E/	.	.	.
.	2D\	2F/	.	[1A	2d/
.	2AA/	2E/	.	.	2c/
=24	=24	=24	=24	=24	=24
0r	2.D\	1F	0r	1A]	2d/
.	.	.	.	.	1f
.	4C/	.	.	.	.
.	1BB	1G	.	2r	.
.	.	.	.	2D/	4e/
.	.	.	.	.	4d/
=25	=25	=25	=25	=25	=25
1r	1AA	1A	1r	2E/	1c
.	.	.	.	2F/	.
1GG	1r	1r	1G	2G/	1r
.	.	.	.	2d\	.
=26	=26	=26	=26	=26	=26
2D\	0r	0r	2A/	2f\	1d
2D\	.	.	2B\	2f\	.
2.AA/	.	.	[1c	2e\	2a/
.	.	.	.	2c\	2a/
4BB/	.	.	.	.	.
=27	=27	=27	=27	=27	=27
4C/	0r	0r	2c\]	2e\	4g/
4D\	.	.	.	.	4f/
4E\	.	.	4B\	2e\	2g/
4F\	.	.	4A/	.	.
2G\	.	.	2B\	[1d	2g/
2F\	.	.	2A/	.	[2a/
=28	=28	=28	=28	=28	=28
2.G\	1r	1r	1B	1d]	4a/]
.	.	.	.	.	4g/
.	.	.	.	.	1g
4F\	.	.	.	.	.
1E	2r	1G	1c	1r	.
.	2C/	.	.	.	4f/
.	.	.	.	.	4e/
=29	=29	=29	=29	=29	=29
1D	2F\	2A/	1d	2r	2f/
.	2D\	2B\	.	2f\	2f/
1r	2.AA/	[1c	1r	2e\	2a/
.	.	.	.	2c\	2a/
.	4BB/	.	.	.	.
=30	=30	=30	=30	=30	=30
0r	4C/	2c\]	0r	1e	4g/
.	4D\	.	.	.	4f/
.	4E\	4B\	.	.	2g/
.	4F\	4A/	.	.	.
.	2G\	2B\	.	[1d	2g/
.	2F\	2A/	.	.	[2a/
=31	=31	=31	=31	=31	=31
0r	2.G\	1B	0r	1d]	4a/]
.	.	.	.	.	4g/
.	.	.	.	.	1g
.	4F\	.	.	.	.
.	1E	1c	.	1r	.
.	.	.	.	.	4f/
.	.	.	.	.	4e/
=32	=32	=32	=32	=32	=32
1r	1D	1d	1r	1r	1f
1D	1r	1r	1d	2r	2r
.	.	.	.	2A/	2f/
=33	=33	=33	=33	=33	=33
2E\	0r	0r	1c	2e\	2g/
2F\	.	.	.	2A/	2a/
2G\	.	.	1B	1d	4d/
.	.	.	.	.	4e/
4D\	.	.	.	.	4f/
4E\	.	.	.	.	4g/
=34	=34	=34	=34	=34	=34
4F\	0r	0r	2A/	2r	4a/
4G\	.	.	.	.	4b\
4A\	.	.	2c\	2A/	2.a/
4F\	.	.	.	.	.
2G\	.	.	2B\	2.B\	.
.	.	.	.	.	4g/
2E\	.	.	2G/	.	[2g/
.	.	.	.	4c\	.
=35	=35	=35	=35	=35	=35
1D	1r	1r	1A	1d	2g/]
.	.	.	.	.	2f#i/
1GG	2r	1d	1G	2B\	2g/
.	2D\	.	.	2B\	2dd\
=36	=36	=36	=36	=36	=36
0r	2E\	1c	0r	2e\	2g/
.	2F\	.	.	2A/	2a/
.	2G\	1B	.	1d	4d/
.	.	.	.	.	4e/
.	4D\	.	.	.	4f/
.	4E\	.	.	.	4g/
=37	=37	=37	=37	=37	=37
0r	4F\	2A/	0r	2r	4a/
.	4G\	.	.	.	4b\
.	4A\	2c\	.	2A/	2.a/
.	4F\	.	.	.	.
.	2G\	2B\	.	2.B\	.
.	.	.	.	.	4g/
.	2E\	2G/	.	.	[2g/
.	.	.	.	4c\	.
=38	=38	=38	=38	=38	=38
0r	1D	1A	0r	1d	2g/]
.	.	.	.	.	2f#i/
.	1GG	1G	.	1B	1g
=39	=39	=39	=39	=39	=39
1AA	0r	0r	1A	2r	2r
.	.	.	.	2c\	2c/
2BB/	.	.	1G	2B\	2d/
2C/	.	.	.	2G/	2e/
=40	=40	=40	=40	=40	=40
2D\	0r	0r	1F	2d\	4A/
.	.	.	.	.	4B/
4AA/	.	.	.	2c\	4c/
4BB/	.	.	.	.	4d/
4C/	.	.	2E/	2.c\	4e/
4D\	.	.	.	.	4f/
4E\	.	.	2G/	.	[2e/
4C/	.	.	.	4B\	.
=41	=41	=41	=41	=41	=41
2D\	0r	0r	2F/	2A/	4e/]
.	.	.	.	.	4d/
2BB/	.	.	2D/	2G/	1d
1AA	.	.	1E	1A	.
.	.	.	.	.	2c#i/
=42	=42	=42	=42	=42	=42
1DD	2r	1A	1D	2r	2d/
.	2AA/	.	.	2A/	2a/
1r	2BB/	1G	1r	2d\	2d/
.	2C/	.	.	2G/	2e/
=43	=43	=43	=43	=43	=43
0r	2D\	1F	0r	2d\	4A/
.	.	.	.	.	4B/
.	4AA/	.	.	2c\	4c/
.	4BB/	.	.	.	4d/
.	4C/	2E/	.	2.c\	4e/
.	4D\	.	.	.	4f/
.	4E\	2G/	.	.	[2e/
.	4C/	.	.	4B\	.
=44	=44	=44	=44	=44	=44
1r	2D\	2F/	0r	2A/	4e/]
.	.	.	.	.	4d/
.	2BB/	2D/	.	2G/	1d
2r	1AA	1E	.	[1A	.
2C/	.	.	.	.	2c#i/
=45	=45	=45	=45	=45	=45
2F\	2DD/	[0D	2r	0A_	[0d
2F\	2D\	.	1D	.	.
2D\	2F\	.	.	.	.
2D\	2F\	.	2F/	.	.
=46	=46	=46	=46	=46	=46
2.F\	2D\	0D_	2F/	1A]	0d_
.	2D\	.	2D/	.	.
4E\	.	.	.	.	.
4D\	4F\	.	2r	2r	.
4C/	4E\	.	.	.	.
4BB-i/	4D\	.	2D/	2F/	.
4AA/	4C/	.	.	.	.
=47	=47	=47	=47	=47	=47
4GG/	2BB-i/	0D_	1G	2G/	0d_
4FF/	.	.	.	.	.
1GG	2GG/	.	.	1B-i	.
.	2.BB-i/	.	1G	.	.
4FF/	.	.	.	4A/	.
4EE/	4C/	.	.	4G/	.
=48	=48	=48	=48	=48	=48
2DD/	1D	0D_	1F	1A	0d_
4F\	.	.	.	.	.
4E\	.	.	.	.	.
4D\	2r	.	2r	2r	.
4C/	.	.	.	.	.
4BB-i/	2D\	.	2D/	2F/	.
4AA/	.	.	.	.	.
=49	=49	=49	=49	=49	=49
4GG/	2BB-i/	0D]	1G	2G/	0d]
4FF/	.	.	.	.	.
1GG	2GG/	.	.	1B-i	.
.	2.BB-i/	.	1G	.	.
4FF/	.	.	.	4A/	.
4EE/	4C/	.	.	4G/	.
=50	=50	=50	=50	=50	=50
0DD	0D	0D	0F	0A	0d
==	==	==	==	==	==
*-	*-	*-	*-	*-	*-
!!!RDF**kern: l=long note in original notation
!!!RDF**kern: i=editorial accidental
!!!ENC:	Will Watson 08/09/2011
!!!END:	2011/09/08/
!!!EED:	Jesse Rodin
!!!EEV:	2011/12/01/
!!attribution-level@Jos: 4 (questionable)
!!!ONB:	Translated from MusicXML and edited on 2011/12/01/ by Craig Sapp
!!muse2ps: C^@{COA}?\n@{SCT}^i2I150v95,95,95,95,95,130Q16
